X:1
T: Biddy of Sligo
C:
R:Jig
Q:180
K:D
M:6/8
L:1/16
|:fe|d4A2 A2F2A2|B2G2B2 A2f2e2|d4A2 A2F2A2|g6 f4e2|
d4A2 A2F2A2|B2G2B2 A4f2|a2b2a2 a2g2e2|e6 d4:|
|:a2|f2a2a2 b4a2|f2a2a2 b4a2|f2a2a2 f2a2a2|e4f2 g2f2e2|
f2a2a2 b4a2|f2a2a2 b4a2|a2b2a2 a2g2f2|e6 d4:|
